X:19025
T:Stoney Steps
R:.Hornpipe
C:Trad.
O:England, Cheshire
Z:Paul Hardy's Session Tunebook 2015 (see www.paulhardy.net). Creative Commons cc by-nc-sa licenced.
M:4/4
L:1/8
Q:1/4=140
K:G
"G"G2 BG dBgd|"C"ecAd GFED|"Am"ECB,C A,2 AB|"C"cABG "G"GFED|
"G"G2 BG dBgB|"C"ecAd GFED|"Am"ECB,C A,2 AB|"D"cAGF "G"G4:|
|:"G"G,A,B,C "D"DEFG|"C"ABcd "G"B2G2|"Am"BcAF "G"G2 ef|"A"ged^c "D"d4|
"G"dBgd =cBed|"C"cBAG FEDC|"Bm"B,DGD "C"CEAc|"G"BAGF G4:|

